; generated by PrusaSlicer 2.9.0 on 2025-02-25 at 05:14:01 UTC


;
;
; 

; external perimeters extrusion width = 0.45mm
; perimeters extrusion width = 0.45mm
; infill extrusion width = 0.45mm
; solid infill extrusion width = 0.45mm
; top infill extrusion width = 0.40mm
; first layer extrusion width = 0.42mm

M73 P0 R217
M73 Q0 S218
M201 X1000 Y1000 Z200 E5000 ; sets maximum accelerations, mm/sec^2
M203 X200 Y200 Z12 E120 ; sets maximum feedrates, mm / sec
M204 S1250 T1250 ; sets acceleration (S) and retract acceleration (R), mm/sec^2
M205 X8.00 Y8.00 Z0.40 E4.50 ; sets the jerk limits, mm/sec
M205 S0 T0 ; sets the minimum extruding and travel feed rate, mm/sec

; printing object finger_box_pocket.stl id:0 copy 0
; stop printing object finger_box_pocket.stl id:0 copy 0

;TYPE:Custom
M862.3 P "MK3" ; printer model check
M862.1 P0.4 ; nozzle diameter check
M115 U3.14.1 ; tell printer latest fw version
G90 ; use absolute coordinates
M83 ; extruder relative mode
M104 S215 ; set extruder temp
M140 S60 ; set bed temp
M190 S60 ; wait for bed temp
M109 S215 ; wait for extruder temp
G28 W ; home all without mesh bed level
G80 X32.6229 Y32.6229 W184.754 H144.754 ; mesh bed levelling

G1 Z0.2 F720
G1 Y-3 F1000 ; go outside print area
G92 E0
G1 X60 E9 F1000 ; intro line
G1 X100 E12.5 F1000 ; intro line

G92 E0
M221 S95

; Don't change E values below. Excessive value can damage the printer.
M907 E430 ; set extruder motor current
G21 ; set units to millimeters
G90 ; use absolute coordinates
M83 ; use relative distances for extrusion

M900 K0.05 ; Filament gcode LA 1.5
M900 K30 ; Filament gcode LA 1.0




M107
;LAYER_CHANGE
;Z:0.2
;HEIGHT:0.2
G1 E-.8 F2100
G1 Z.6 F720
G1 X48.378 Y51.404 F10800
G1 Z.2 F720
G1 E.8 F2100
M204 S800
;TYPE:Skirt/Brim
;WIDTH:0.42
G1 F1200
G1 X67.502 Y33.406 E.8234
G1 X69.002 Y32.811 E.0506
G1 X180.998 Y32.811 E3.51156
G1 X182.498 Y33.406 E.0506
G1 X216.5 Y65.406 E1.46399
G1 X217.189 Y67 E.05445
G1 X217.189 Y143 E2.38293
G1 X216.5 Y144.594 E.05445
G1 X182.498 Y176.594 E1.46399
G1 X180.998 Y177.189 E.0506
G1 X69.002 Y177.189 E3.51156
G1 X67.502 Y176.594 E.0506
G1 X33.5 Y144.594 E1.46399
G1 X32.811 Y143 E.05445
G1 X32.811 Y67 E2.38293
G1 X33.5 Y65.406 E.05445
G1 X48.334 Y51.446 E.63868
M204 S1000
;WIPE_START
G1 F8640
G1 X48.378 Y51.404 E-.01405
G1 X50.857 Y49.071 E-.78595
;WIPE_END
G1 Z.6 F720
; printing object finger_box_pocket.stl id:0 copy 0
G1 X88.811 Y64.213 F10800
G1 Z.2 F720
G1 E.8 F2100
M204 S800
;TYPE:Perimeter
;WIDTH:0.419999
G1 F1200
G1 X80.789 Y64.213 E.25152
G1 X80.789 Y62.777 E.04502
G1 X80.696 Y62.465 E.01021
G1 X80.503 Y62.285 E.00827
G1 X80.223 Y62.211 E.00908
G1 X69.789 Y62.211 E.32715
G1 X69.789 Y54.377 E.24563
G1 X69.728 Y54.12 E.00828
G1 X69.535 Y53.904 E.00908
G1 X69.223 Y53.811 E.01021
G1 X67.787 Y53.811 E.04502
G1 X67.787 Y45.789 E.25152
G1 X69.223 Y45.789 E.04502
G1 X69.535 Y45.696 E.01021
G1 X69.718 Y45.499 E.00843
G1 X69.789 Y45.223 E.00894
M73 Q0 S217
G1 X69.789 Y35.787 E.29586
G1 X180.211 Y35.787 E3.4622
G1 X180.211 Y45.223 E.29586
G1 X180.272 Y45.48 E.00828
G1 X180.465 Y45.696 E.00908
G1 X180.777 Y45.789 E.01021
G1 X182.213 Y45.789 E.04502
G1 X182.213 Y47.225 E.04502
G1 X182.213 Y53.811 E.2065
G1 X180.777 Y53.811 E.04502
G1 X180.465 Y53.904 E.01021
G1 X180.283 Y54.101 E.00841
G1 X180.211 Y54.377 E.00894
G1 X180.211 Y62.211 E.24563
G1 X169.377 Y62.211 E.33969
G1 X169.116 Y62.275 E.00843
G1 X168.904 Y62.465 E.00893
G1 X168.811 Y62.777 E.01021
G1 X168.811 Y64.213 E.04502
G1 X160.789 Y64.213 E.25152
G1 X160.789 Y62.777 E.04502
G1 X160.696 Y62.465 E.01021
G1 X160.503 Y62.285 E.00827
G1 X160.223 Y62.211 E.00908
G1 X149.377 Y62.211 E.34007
G1 X149.116 Y62.275 E.00843
G1 X148.904 Y62.465 E.00893
G1 X148.811 Y62.777 E.01021
G1 X148.811 Y64.213 E.04502
G1 X140.789 Y64.213 E.25152
G1 X140.789 Y62.777 E.04502
G1 X140.696 Y62.465 E.01021
G1 X140.503 Y62.285 E.00827
G1 X140.223 Y62.211 E.00908
G1 X129.377 Y62.211 E.34007
G1 X129.116 Y62.275 E.00843
G1 X128.904 Y62.465 E.00893
G1 X128.811 Y62.777 E.01021
G1 X128.811 Y64.213 E.04502
G1 X120.789 Y64.213 E.25152
G1 X120.789 Y62.777 E.04502
G1 X120.696 Y62.465 E.01021
G1 X120.503 Y62.285 E.00827
G1 X120.223 Y62.211 E.00908
G1 X109.377 Y62.211 E.34007
G1 X109.116 Y62.275 E.00843
G1 X108.904 Y62.465 E.00893
G1 X108.811 Y62.777 E.01021
G1 X108.811 Y64.213 E.04502
G1 X100.789 Y64.213 E.25152
G1 X100.789 Y62.777 E.04502
G1 X100.696 Y62.465 E.01021
G1 X100.503 Y62.285 E.00827
G1 X100.223 Y62.211 E.00908
G1 X89.377 Y62.211 E.34007
G1 X89.116 Y62.275 E.00843
G1 X88.904 Y62.465 E.00893
G1 X88.811 Y62.777 E.01021
G1 X88.811 Y64.153 E.04314
M204 S1000
G1 X89.188 Y64.59 F10800
M204 S800
;TYPE:External perimeter
G1 F1200
G1 X80.412 Y64.59 E.27516
G1 X80.412 Y62.777 E.05685
G1 X80.362 Y62.649 E.00431
G1 X80.223 Y62.588 E.00476
G1 X69.412 Y62.588 E.33897
G1 X69.412 Y54.377 E.25745
G1 X69.372 Y54.26 E.00388
G1 X69.223 Y54.188 E.00519
G1 X67.41 Y54.188 E.05685
G1 X67.41 Y45.412 E.27516
G1 X69.223 Y45.412 E.05685
G1 X69.351 Y45.362 E.00431
G1 X69.412 Y45.223 E.00476
G1 X69.412 Y35.41 E.30768
G1 X180.588 Y35.41 E3.48584
G1 X180.588 Y45.223 E.30768
M73 P0 R216
G1 X180.628 Y45.34 E.00388
G1 X180.777 Y45.412 E.00519
G1 X182.59 Y45.412 E.05685
G1 X182.59 Y47.225 E.05685
G1 X182.59 Y54.188 E.21832
G1 X180.777 Y54.188 E.05685
G1 X180.649 Y54.238 E.00431
G1 X180.588 Y54.377 E.00476
G1 X180.588 Y62.588 E.25745
G1 X169.377 Y62.588 E.35151
G1 X169.259 Y62.629 E.00392
G1 X169.188 Y62.777 E.00515
G1 X169.188 Y64.59 E.05685
G1 X160.412 Y64.59 E.27516
G1 X160.412 Y62.777 E.05685
G1 X160.362 Y62.649 E.00431
G1 X160.223 Y62.588 E.00476
G1 X149.377 Y62.588 E.34007
G1 X149.259 Y62.629 E.00392
G1 X149.188 Y62.777 E.00515
G1 X149.188 Y64.59 E.05685
G1 X140.412 Y64.59 E.27516
G1 X140.412 Y62.777 E.05685
G1 X140.362 Y62.649 E.00431
G1 X140.223 Y62.588 E.00476
G1 X129.377 Y62.588 E.34007
G1 X129.259 Y62.629 E.00392
G1 X129.188 Y62.777 E.00515
G1 X129.188 Y64.59 E.05685
G1 X120.412 Y64.59 E.27516
G1 X120.412 Y62.777 E.05685
G1 X120.362 Y62.649 E.00431
G1 X120.223 Y62.588 E.00476
G1 X109.377 Y62.588 E.34007
G1 X109.259 Y62.629 E.00392
G1 X109.188 Y62.777 E.00515
G1 X109.188 Y64.59 E.05685
G1 X100.412 Y64.59 E.27516
G1 X100.412 Y62.777 E.05685
G1 X100.362 Y62.649 E.00431
G1 X100.223 Y62.588 E.00476
G1 X89.377 Y62.588 E.34007
G1 X89.259 Y62.629 E.00392
G1 X89.188 Y62.777 E.00515
G1 X89.188 Y64.53 E.05496
M204 S1000
;WIPE_START
G1 F8640
G1 X89.188 Y64.59 E-.01385
G1 X85.783 Y64.59 E-.78615
;WIPE_END
G1 Z.6 F720
G1 X181.265 Y45.959 F10800
G1 Z.2 F720
G1 E.8 F2100
M204 S800
;TYPE:Solid infill
;WIDTH:0.420715
G1 F1200
G1 X182.043 Y46.737 E.03456
M204 S1000
;WIPE_START
G1 F8640
G1 X181.265 Y45.959 E-.25405
;WIPE_END
G1 E-.54595 F2100
G1 Z.6 F720
G1 X179.277 Y35.957 F10800
G1 Z.2 F720
G1 E.8 F2100
M204 S800
G1 F1200
G1 X179.872 Y36.551 E.02641
G1 X179.872 Y37.085 E.01677
G1 X178.913 Y36.126 E.0426
G1 X178.379 Y36.126 E.01677
G1 X179.872 Y37.62 E.06635
G1 X179.872 Y38.154 E.01677
G1 X177.844 Y36.126 E.0901
G1 X177.31 Y36.126 E.01677
G1 X179.872 Y38.689 E.11384
G1 X179.872 Y39.223 E.01677
G1 X176.776 Y36.126 E.13756
G1 X176.241 Y36.126 E.01681
G1 X179.873 Y39.758 E.16135
G1 X179.873 Y40.292 E.01677
G1 X175.707 Y36.126 E.18508
G1 X175.173 Y36.126 E.01677
G1 X179.873 Y40.826 E.2088
G1 X179.873 Y41.361 E.01681
G1 X174.639 Y36.126 E.23255
G1 X174.104 Y36.126 E.01681
G1 X179.873 Y41.895 E.25629
G1 X179.873 Y42.43 E.01681
G1 X173.57 Y36.126 E.28004
G1 X173.036 Y36.126 E.01677
G1 X179.873 Y42.964 E.30376
G1 X179.873 Y43.498 E.01677
G1 X172.501 Y36.126 E.32751
G1 X171.967 Y36.126 E.01677
G1 X179.874 Y44.033 E.35127
G1 X179.874 Y44.567 E.01677
G1 X171.433 Y36.126 E.375
G1 X170.899 Y36.126 E.01677
G1 X179.874 Y45.102 E.39874
G1 X179.874 Y45.301 E.00625
G1 X179.935 Y45.561 E.00839
G1 X180.065 Y45.785 E.00814
G1 X180.275 Y45.978 E.00896
G1 X180.47 Y46.077 E.00687
G1 X180.763 Y46.128 E.00934
G1 X180.901 Y46.128 E.00434
G1 X181.874 Y47.101 E.04323
G1 X181.874 Y47.636 E.01681
G1 X170.364 Y36.126 E.51134
G1 X169.83 Y36.126 E.01677
G1 X181.874 Y48.17 E.53506
G1 X181.874 Y48.704 E.01677
G1 X169.296 Y36.126 E.55879
G1 X168.761 Y36.126 E.01681
G1 X181.874 Y49.239 E.58256
G1 X181.874 Y49.773 E.01677
G1 X168.227 Y36.126 E.60628
G1 X167.693 Y36.126 E.01677
G1 X181.874 Y50.307 E.63
G1 X181.874 Y50.841 E.01677
G1 X167.159 Y36.126 E.65373
G1 X166.624 Y36.126 E.01681
G1 X181.874 Y51.376 E.67749
G1 X181.874 Y51.91 E.01677
G1 X166.09 Y36.126 E.70122
G1 X165.556 Y36.126 E.01677
G1 X181.874 Y52.444 E.72494
G1 X181.874 Y52.979 E.01681
G1 X165.022 Y36.126 E.74869
G1 X164.487 Y36.126 E.01681
G1 X181.832 Y53.472 E.77059
G1 X181.298 Y53.472 E.01677
G1 X163.953 Y36.126 E.77059
G1 X163.419 Y36.126 E.01677
G1 X180.764 Y53.472 E.77059
G1 X180.47 Y53.523 E.00937
G1 X180.345 Y53.587 E.00441
G1 X162.884 Y36.126 E.77572
G1 X162.35 Y36.126 E.01677
G1 X180.059 Y53.835 E.78674
G1 X179.969 Y53.964 E.00494
G1 X179.891 Y54.202 E.00787
G1 X161.816 Y36.126 E.80302
G1 X161.282 Y36.126 E.01677
G1 X179.872 Y54.716 E.82588
G1 X179.872 Y55.251 E.01681
G1 X160.747 Y36.126 E.84964
G1 X160.213 Y36.126 E.01677
G1 X179.872 Y55.785 E.87337
G1 X179.872 Y56.319 E.01677
M73 Q0 S216
G1 X159.679 Y36.126 E.89709
G1 X159.144 Y36.126 E.01681
G1 X179.872 Y56.854 E.92086
G1 X179.872 Y57.388 E.01677
G1 X158.61 Y36.126 E.94458
G1 X158.076 Y36.126 E.01677
G1 X179.872 Y57.922 E.9683
G1 X179.872 Y58.456 E.01677
G1 X157.542 Y36.126 E.99203
G1 X157.007 Y36.126 E.01681
G1 X179.872 Y58.991 E1.0158
G1 X179.872 Y59.525 E.01677
G1 X156.473 Y36.126 E1.03952
G1 X155.939 Y36.126 E.01677
G1 X179.872 Y60.059 E1.06324
G1 X179.872 Y60.594 E.01681
G1 X155.404 Y36.126 E1.08701
G1 X154.87 Y36.126 E.01677
G1 X179.872 Y61.128 E1.11073
G1 X179.872 Y61.662 E.01677
G1 X154.336 Y36.126 E1.13446
G1 X153.802 Y36.126 E.01677
M73 P0 R215
G1 X179.547 Y61.872 E1.14376
G1 X179.013 Y61.873 E.01677
G1 X153.267 Y36.126 E1.14381
G1 X152.733 Y36.126 E.01677
G1 X178.48 Y61.873 E1.14383
G1 X177.946 Y61.874 E.01677
G1 X152.199 Y36.126 E1.14385
G1 X151.664 Y36.126 E.01681
G1 X177.412 Y61.874 E1.14388
G1 X176.879 Y61.875 E.01674
G1 X151.13 Y36.126 E1.14392
G1 X150.596 Y36.126 E.01677
G1 X176.345 Y61.875 E1.14392
G1 X175.811 Y61.876 E.01677
G1 X150.062 Y36.126 E1.14394
G1 X149.527 Y36.126 E.01681
M73 P1 R215
M73 Q1 S216
G1 X175.277 Y61.877 E1.14399
G1 X174.744 Y61.877 E.01674
G1 X148.993 Y36.126 E1.14401
G1 X148.459 Y36.126 E.01677
G1 X174.21 Y61.878 E1.14403
G1 X173.676 Y61.878 E.01677
G1 X147.924 Y36.126 E1.14405
G1 X147.39 Y36.126 E.01677
G1 X173.143 Y61.879 E1.1441
G1 X172.609 Y61.879 E.01677
G1 X146.856 Y36.126 E1.1441
G1 X146.322 Y36.126 E.01677
G1 X172.075 Y61.88 E1.14412
G1 X171.541 Y61.88 E.01677
G1 X145.787 Y36.126 E1.14414
G1 X145.253 Y36.126 E.01677
G1 X171.008 Y61.881 E1.14419
G1 X170.474 Y61.882 E.01677
G1 X144.719 Y36.126 E1.14421
G1 X144.184 Y36.126 E.01681
G1 X169.94 Y61.882 E1.14423
G1 X169.406 Y61.883 E.01677
G1 X143.65 Y36.126 E1.14425
G1 X143.116 Y36.126 E.01677
G1 X168.965 Y61.975 E1.14836
G1 X168.811 Y62.068 E.00565
G1 X168.673 Y62.218 E.0064
G1 X142.582 Y36.126 E1.15914
G1 X142.047 Y36.126 E.01681
G1 X168.503 Y62.583 E1.17535
G1 X168.472 Y62.763 E.00574
M73 Q1 S215
G1 X168.472 Y63.085 E.01012
G1 X141.513 Y36.126 E1.19768
G1 X140.979 Y36.126 E.01677
G1 X168.472 Y63.619 E1.2214
G1 X168.472 Y63.874 E.00801
G1 X168.192 Y63.874 E.0088
G1 X140.444 Y36.126 E1.23273
G1 X139.91 Y36.126 E.01677
G1 X167.657 Y63.874 E1.2327
G1 X167.123 Y63.874 E.01677
G1 X139.376 Y36.126 E1.2327
G1 X138.842 Y36.126 E.01677
G1 X166.589 Y63.874 E1.2327
G1 X166.054 Y63.874 E.01681
G1 X138.307 Y36.126 E1.2327
G1 X137.773 Y36.126 E.01677
G1 X165.52 Y63.874 E1.2327
G1 X164.986 Y63.874 E.01677
M73 P1 R214
G1 X137.239 Y36.126 E1.2327
G1 X136.705 Y36.126 E.01677
G1 X164.452 Y63.874 E1.2327
G1 X163.917 Y63.874 E.01681
G1 X136.17 Y36.126 E1.2327
G1 X135.636 Y36.126 E.01677
G1 X163.383 Y63.874 E1.2327
G1 X162.849 Y63.874 E.01677
G1 X135.102 Y36.126 E1.2327
G1 X134.567 Y36.126 E.01681
G1 X160.328 Y61.887 E1.14445
G1 X160.515 Y61.918 E.00595
G1 X160.742 Y62.033 E.00799
G1 X160.887 Y62.16 E.00606
G1 X160.981 Y62.28 E.00479
G1 X161.077 Y62.47 E.00669
G1 X161.112 Y62.671 E.00641
G1 X162.315 Y63.874 E.05344
G1 X161.78 Y63.874 E.01681
G1 X161.128 Y63.222 E.02897
G1 X161.128 Y63.756 E.01677
G1 X161.416 Y64.043 E.01277
M204 S1000
;WIPE_START
G1 F8640
G1 X161.128 Y63.756 E-.09388
G1 X161.128 Y63.222 E-.1233
G1 X161.78 Y63.874 E-.21291
G1 X162.315 Y63.874 E-.12353
G1 X161.561 Y63.12 E-.24638
;WIPE_END
G1 Z.6 F720
G1 X159.948 Y62.041 F10800
G1 Z.2 F720
G1 E.8 F2100
M204 S800
G1 F1200
G1 X134.033 Y36.126 E1.15129
G1 X133.499 Y36.126 E.01677
G1 X159.244 Y61.872 E1.14376
G1 X158.71 Y61.872 E.01677
G1 X132.965 Y36.126 E1.14376
G1 X132.43 Y36.126 E.01681
G1 X158.176 Y61.872 E1.14379
G1 X157.642 Y61.873 E.01677
G1 X131.896 Y36.126 E1.14381
G1 X131.362 Y36.126 E.01677
G1 X157.108 Y61.873 E1.14381
G1 X156.574 Y61.873 E.01677
G1 X130.827 Y36.126 E1.14383
G1 X130.293 Y36.126 E.01677
G1 X156.04 Y61.873 E1.14383
G1 X155.506 Y61.874 E.01677
G1 X129.759 Y36.126 E1.14385
G1 X129.225 Y36.126 E.01677
G1 X154.972 Y61.874 E1.14385
G1 X154.438 Y61.874 E.01677
G1 X128.69 Y36.126 E1.14388
G1 X128.156 Y36.126 E.01677
G1 X153.904 Y61.874 E1.14388
G1 X153.37 Y61.874 E.01677
G1 X127.622 Y36.126 E1.14388
G1 X127.087 Y36.126 E.01681
G1 X152.836 Y61.875 E1.14392
G1 X152.302 Y61.875 E.01677
G1 X126.553 Y36.126 E1.14392
G1 X126.019 Y36.126 E.01677
G1 X151.768 Y61.875 E1.14392
G1 X151.233 Y61.875 E.01681
G1 X125.485 Y36.126 E1.1439
G1 X124.95 Y36.126 E.01681
M73 Q1 S214
G1 X150.699 Y61.876 E1.14394
G1 X150.165 Y61.876 E.01677
G1 X124.416 Y36.126 E1.14394
G1 X123.882 Y36.126 E.01677
G1 X149.631 Y61.876 E1.14394
G1 X149.274 Y61.876 E.01121
G1 X149.133 Y61.912 E.00457
G1 X123.347 Y36.126 E1.14556
G1 X122.813 Y36.126 E.01677
G1 X148.784 Y62.097 E1.15378
G1 X148.622 Y62.275 E.00756
G1 X148.557 Y62.404 E.00454
G1 X122.279 Y36.126 E1.16742
G1 X121.745 Y36.126 E.01677
G1 X148.472 Y62.853 E1.18737
G1 X148.472 Y63.388 E.01681
G1 X121.21 Y36.126 E1.21114
G1 X120.676 Y36.126 E.01677
G1 X148.423 Y63.874 E1.2327
G1 X147.889 Y63.874 E.01677
M73 P1 R213
G1 X120.142 Y36.126 E1.2327
G1 X119.607 Y36.126 E.01681
G1 X147.355 Y63.874 E1.23273
G1 X146.82 Y63.874 E.01681
G1 X119.073 Y36.126 E1.2327
G1 X118.539 Y36.126 E.01677
G1 X146.286 Y63.874 E1.2327
G1 X145.752 Y63.874 E.01677
G1 X118.005 Y36.126 E1.2327
G1 X117.47 Y36.126 E.01681
G1 X145.217 Y63.874 E1.2327
G1 X144.683 Y63.874 E.01677
G1 X116.936 Y36.126 E1.2327
G1 X116.402 Y36.126 E.01677
G1 X144.149 Y63.874 E1.2327
G1 X143.615 Y63.874 E.01677
G1 X115.867 Y36.126 E1.23273
G1 X115.333 Y36.126 E.01677
G1 X143.08 Y63.874 E1.2327
G1 X142.546 Y63.874 E.01677
G1 X114.799 Y36.126 E1.2327
G1 X114.265 Y36.126 E.01677
G1 X140.01 Y61.872 E1.14376
G1 X139.476 Y61.872 E.01677
G1 X113.73 Y36.126 E1.14379
G1 X113.196 Y36.126 E.01677
M73 P2 R213
M73 Q2 S214
G1 X138.943 Y61.873 E1.14383
G1 X138.409 Y61.873 E.01677
G1 X112.662 Y36.126 E1.14383
G1 X112.128 Y36.126 E.01677
G1 X137.875 Y61.874 E1.14385
G1 X137.341 Y61.875 E.01677
G1 X111.593 Y36.126 E1.1439
G1 X111.059 Y36.126 E.01677
G1 X136.808 Y61.875 E1.14392
G1 X136.274 Y61.876 E.01677
G1 X110.525 Y36.126 E1.14394
G1 X109.99 Y36.126 E.01681
G1 X135.74 Y61.876 E1.14396
G1 X135.206 Y61.877 E.01677
G1 X109.456 Y36.126 E1.14399
G1 X108.922 Y36.126 E.01677
G1 X134.673 Y61.877 E1.14401
G1 X134.139 Y61.878 E.01677
M73 Q2 S213
G1 X108.388 Y36.126 E1.14403
G1 X107.853 Y36.126 E.01681
G1 X133.605 Y61.878 E1.14405
G1 X133.071 Y61.879 E.01677
G1 X107.319 Y36.126 E1.14408
G1 X106.785 Y36.126 E.01677
G1 X132.538 Y61.88 E1.14412
G1 X132.004 Y61.88 E.01677
G1 X106.25 Y36.126 E1.14414
G1 X105.716 Y36.126 E.01677
G1 X131.47 Y61.881 E1.14416
G1 X130.937 Y61.881 E.01674
G1 X105.182 Y36.126 E1.14419
G1 X104.648 Y36.126 E.01677
G1 X130.403 Y61.882 E1.14421
G1 X129.869 Y61.882 E.01677
G1 X104.113 Y36.126 E1.14423
G1 X103.579 Y36.126 E.01677
M73 P2 R212
G1 X129.335 Y61.883 E1.14425
G1 X129.224 Y61.883 E.00349
G1 X129.009 Y61.948 E.00706
G1 X128.92 Y62.002 E.00327
G1 X103.045 Y36.126 E1.14954
