; generated by PrusaSlicer 2.9.0 on 2025-02-25 at 05:04:08 UTC


;
;
; 

; external perimeters extrusion width = 0.45mm
; perimeters extrusion width = 0.45mm
; infill extrusion width = 0.45mm
; solid infill extrusion width = 0.45mm
; top infill extrusion width = 0.40mm
; first layer extrusion width = 0.42mm

M73 P0 R35
M73 Q0 S35
M201 X1000 Y1000 Z200 E5000 ; sets maximum accelerations, mm/sec^2
M203 X200 Y200 Z12 E120 ; sets maximum feedrates, mm / sec
M204 S1250 T1250 ; sets acceleration (S) and retract acceleration (R), mm/sec^2
M205 X8.00 Y8.00 Z0.40 E4.50 ; sets the jerk limits, mm/sec
M205 S0 T0 ; sets the minimum extruding and travel feed rate, mm/sec

; printing object finger_box_pocket.stl id:0 copy 0
; stop printing object finger_box_pocket.stl id:0 copy 0

;TYPE:Custom
M862.3 P "MK3" ; printer model check
M862.1 P0.4 ; nozzle diameter check
M115 U3.14.1 ; tell printer latest fw version
G90 ; use absolute coordinates
M83 ; extruder relative mode
M104 S215 ; set extruder temp
M140 S60 ; set bed temp
M190 S60 ; wait for bed temp
M109 S215 ; wait for extruder temp
G28 W ; home all without mesh bed level
G80 X77.6229 Y67.6229 W94.7542 H74.7542 ; mesh bed levelling

G1 Z0.2 F720
G1 Y-3 F1000 ; go outside print area
G92 E0
G1 X60 E9 F1000 ; intro line
G1 X100 E12.5 F1000 ; intro line

G92 E0
M221 S95

; Don't change E values below. Excessive value can damage the printer.
M907 E430 ; set extruder motor current
G21 ; set units to millimeters
G90 ; use absolute coordinates
M83 ; use relative distances for extrusion

M900 K0.05 ; Filament gcode LA 1.5
M900 K30 ; Filament gcode LA 1.0




M107
;LAYER_CHANGE
;Z:0.2
;HEIGHT:0.2
G1 E-.8 F2100
G1 Z.6 F720
G1 X78.997 Y83.939 F10800
G1 Z.2 F720
G1 E.8 F2100
M204 S800
;TYPE:Skirt/Brim
;WIDTH:0.42
G1 F1200
G1 X95.501 Y68.406 E.71061
G1 X97.001 Y67.811 E.0506
G1 X152.999 Y67.811 E1.75578
G1 X154.499 Y68.406 E.0506
G1 X171.5 Y84.406 E.732
G1 X172.189 Y86 E.05445
G1 X172.189 Y124 E1.19146
G1 X171.5 Y125.594 E.05445
G1 X154.499 Y141.594 E.732
G1 X152.999 Y142.189 E.0506
G1 X97.001 Y142.189 E1.75578
G1 X95.501 Y141.594 E.0506
G1 X78.5 Y125.594 E.732
G1 X77.811 Y124 E.05445
G1 X77.811 Y86 E1.19146
G1 X78.5 Y84.406 E.05445
M73 P1 R35
M73 Q1 S35
G1 X78.953 Y83.98 E.0195
M204 S1000
;WIPE_START
G1 F8640
G1 X78.997 Y83.939 E-.01389
G1 X81.476 Y81.606 E-.78611
;WIPE_END
G1 Z.6 F720
; printing object finger_box_pocket.stl id:0 copy 0
G1 X106.512 Y84.213 F10800
G1 Z.2 F720
G1 E.8 F2100
M204 S800
;TYPE:Perimeter
;WIDTH:0.419999
G1 F1200
G1 X103.288 Y84.213 E.10109
G1 X103.288 Y83.778 E.01364
G1 X103.152 Y83.409 E.01233
G1 X102.981 Y83.275 E.00681
G1 X102.722 Y83.212 E.00836
G1 X97.788 Y83.212 E.1547
G1 X97.788 Y79.578 E.11394
G1 X97.754 Y79.385 E.00614
G1 X97.591 Y79.148 E.00902
G1 X97.222 Y79.012 E.01233
G1 X96.787 Y79.012 E.01364
G1 X96.787 Y75.788 E.10109
G1 X97.222 Y75.788 E.01364
G1 X97.591 Y75.652 E.01233
G1 X97.718 Y75.496 E.00631
G1 X97.788 Y75.222 E.00887
G1 X97.788 Y70.787 E.13906
G1 X152.212 Y70.787 E1.70642
G1 X152.212 Y75.222 E.13906
G1 X152.246 Y75.415 E.00614
G1 X152.409 Y75.652 E.00902
G1 X152.778 Y75.788 E.01233
G1 X153.213 Y75.788 E.01364
G1 X153.213 Y76.223 E.01364
G1 X153.213 Y79.012 E.08745
G1 X152.778 Y79.012 E.01364
G1 X152.409 Y79.148 E.01233
G1 X152.283 Y79.304 E.00629
G1 X152.212 Y79.578 E.00887
G1 X152.212 Y83.212 E.11394
G1 X147.078 Y83.212 E.16097
G1 X146.879 Y83.248 E.00634
G1 X146.648 Y83.409 E.00883
G1 X146.512 Y83.778 E.01233
G1 X146.512 Y84.213 E.01364
G1 X143.288 Y84.213 E.10109
G1 X143.288 Y83.778 E.01364
G1 X143.152 Y83.409 E.01233
G1 X142.981 Y83.275 E.00681
G1 X142.722 Y83.212 E.00836
G1 X137.078 Y83.212 E.17696
G1 X136.879 Y83.248 E.00634
G1 X136.648 Y83.409 E.00883
G1 X136.512 Y83.778 E.01233
G1 X136.512 Y84.213 E.01364
G1 X133.288 Y84.213 E.10109
G1 X133.288 Y83.778 E.01364
G1 X133.152 Y83.409 E.01233
G1 X132.981 Y83.275 E.00681
G1 X132.722 Y83.212 E.00836
G1 X127.078 Y83.212 E.17696
G1 X126.879 Y83.248 E.00634
G1 X126.648 Y83.409 E.00883
G1 X126.512 Y83.778 E.01233
G1 X126.512 Y84.213 E.01364
G1 X123.288 Y84.213 E.10109
G1 X123.288 Y83.778 E.01364
G1 X123.152 Y83.409 E.01233
G1 X122.981 Y83.275 E.00681
G1 X122.722 Y83.212 E.00836
G1 X117.078 Y83.212 E.17696
G1 X116.879 Y83.248 E.00634
G1 X116.648 Y83.409 E.00883
G1 X116.512 Y83.778 E.01233
G1 X116.512 Y84.213 E.01364
G1 X113.288 Y84.213 E.10109
G1 X113.288 Y83.778 E.01364
G1 X113.152 Y83.409 E.01233
G1 X112.981 Y83.275 E.00681
G1 X112.722 Y83.212 E.00836
G1 X107.078 Y83.212 E.17696
G1 X106.879 Y83.248 E.00634
G1 X106.648 Y83.409 E.00883
G1 X106.512 Y83.778 E.01233
G1 X106.512 Y84.153 E.01176
M204 S1000
G1 X106.889 Y84.59 F10800
M204 S800
;TYPE:External perimeter
G1 F1200
G1 X102.911 Y84.59 E.12473
G1 X102.911 Y83.778 E.02546
G1 X102.866 Y83.655 E.00411
G1 X102.722 Y83.589 E.00497
G1 X97.411 Y83.589 E.16652
G1 X97.411 Y79.578 E.12576
G1 X97.387 Y79.486 E.00298
G1 X97.222 Y79.389 E.006
G1 X96.41 Y79.389 E.02546
G1 X96.41 Y75.411 E.12473
G1 X97.222 Y75.411 E.02546
G1 X97.345 Y75.366 E.00411
G1 X97.411 Y75.222 E.00497
G1 X97.411 Y70.41 E.15088
G1 X152.589 Y70.41 E1.73006
G1 X152.589 Y75.222 E.15088
G1 X152.613 Y75.314 E.00298
G1 X152.778 Y75.411 E.006
G1 X153.59 Y75.411 E.02546
G1 X153.59 Y76.223 E.02546
G1 X153.59 Y79.389 E.09927
G1 X152.778 Y79.389 E.02546
G1 X152.655 Y79.434 E.00411
G1 X152.589 Y79.578 E.00497
G1 X152.589 Y83.589 E.12576
G1 X147.078 Y83.589 E.17279
G1 X146.977 Y83.618 E.00329
G1 X146.889 Y83.778 E.00573
G1 X146.889 Y84.59 E.02546
G1 X142.911 Y84.59 E.12473
G1 X142.911 Y83.778 E.02546
G1 X142.866 Y83.655 E.00411
G1 X142.722 Y83.589 E.00497
G1 X137.078 Y83.589 E.17696
G1 X136.977 Y83.618 E.00329
G1 X136.889 Y83.778 E.00573
G1 X136.889 Y84.59 E.02546
G1 X132.911 Y84.59 E.12473
G1 X132.911 Y83.778 E.02546
G1 X132.866 Y83.655 E.00411
G1 X132.722 Y83.589 E.00497
G1 X127.078 Y83.589 E.17696
G1 X126.977 Y83.618 E.00329
G1 X126.889 Y83.778 E.00573
G1 X126.889 Y84.59 E.02546
G1 X122.911 Y84.59 E.12473
G1 X122.911 Y83.778 E.02546
G1 X122.866 Y83.655 E.00411
G1 X122.722 Y83.589 E.00497
G1 X117.078 Y83.589 E.17696
G1 X116.977 Y83.618 E.00329
G1 X116.889 Y83.778 E.00573
G1 X116.889 Y84.59 E.02546
G1 X112.911 Y84.59 E.12473
G1 X112.911 Y83.778 E.02546
G1 X112.866 Y83.655 E.00411
G1 X112.722 Y83.589 E.00497
G1 X107.078 Y83.589 E.17696
G1 X106.977 Y83.618 E.00329
G1 X106.889 Y83.778 E.00573
G1 X106.889 Y84.53 E.02358
M204 S1000
;WIPE_START
G1 F8640
G1 X106.889 Y84.59 E-.01385
G1 X103.484 Y84.59 E-.78615
;WIPE_END
G1 Z.6 F720
G1 X152.042 Y71.72 F10800
G1 Z.2 F720
G1 E.8 F2100
M204 S800
;TYPE:Solid infill
;WIDTH:0.420682
G1 F1200
G1 X151.448 Y71.126 E.02639
G1 X150.914 Y71.126 E.01677
G1 X151.873 Y72.085 E.0426
G1 X151.873 Y72.619 E.01677
G1 X150.38 Y71.126 E.06632
G1 X149.846 Y71.126 E.01677
G1 X151.873 Y73.153 E.09004
G1 X151.873 Y73.688 E.0168
G1 X149.311 Y71.126 E.11381
G1 X148.777 Y71.126 E.01677
G1 X151.873 Y74.222 E.13753
G1 X151.873 Y74.756 E.01677
G1 X148.243 Y71.126 E.16125
G1 X147.709 Y71.126 E.01677
G1 X151.882 Y75.299 E.18537
G1 X151.903 Y75.459 E.00507
G1 X151.96 Y75.612 E.00513
G1 X152.085 Y75.807 E.00728
G1 X152.203 Y75.925 E.00524
G1 X152.685 Y76.103 E.01614
G1 X152.874 Y76.291 E.00837
G1 X152.874 Y76.826 E.0168
G1 X147.174 Y71.126 E.2532
G1 X146.64 Y71.126 E.01677
G1 X152.874 Y77.36 E.27693
G1 X152.874 Y77.894 E.01677
G1 X146.106 Y71.126 E.30065
G1 X145.572 Y71.126 E.01677
G1 X152.874 Y78.428 E.32437
G1 X152.874 Y78.673 E.0077
G1 X152.751 Y78.673 E.00386
G1 X152.629 Y78.718 E.00408
G1 X145.037 Y71.126 E.33725
G1 X144.503 Y71.126 E.01677
G1 X152.239 Y78.862 E.34365
G1 X152.196 Y78.878 E.00144
M73 P2 R35
M73 Q2 S35
G1 X151.983 Y79.141 E.01063
G1 X143.969 Y71.126 E.35602
G1 X143.435 Y71.126 E.01677
G1 X151.882 Y79.574 E.37525
G1 X151.881 Y80.107 E.01674
G1 X142.9 Y71.126 E.39895
G1 X142.366 Y71.126 E.01677
G1 X151.879 Y80.64 E.42261
G1 X151.878 Y81.172 E.01671
G1 X141.832 Y71.126 E.44626
G1 X141.298 Y71.126 E.01677
G1 X151.876 Y81.705 E.46992
G1 X151.875 Y82.238 E.01674
G1 X140.763 Y71.126 E.49362
G1 X140.229 Y71.126 E.01677
G1 X151.873 Y82.77 E.51725
G1 X151.873 Y82.873 E.00324
G1 X151.442 Y82.874 E.01354
G1 X139.695 Y71.126 E.52185
G1 X139.161 Y71.126 E.01677
G1 X150.909 Y82.875 E.52189
G1 X150.376 Y82.876 E.01674
G1 X138.627 Y71.126 E.52194
G1 X138.092 Y71.126 E.0168
G1 X149.843 Y82.877 E.522
G1 X149.31 Y82.879 E.01674
G1 X137.558 Y71.126 E.52207
G1 X137.024 Y71.126 E.01677
M73 P2 R34
G1 X148.777 Y82.88 E.52211
G1 X148.244 Y82.881 E.01674
G1 X136.49 Y71.126 E.52216
G1 X135.955 Y71.126 E.0168
G1 X147.711 Y82.882 E.52222
G1 X147.178 Y82.883 E.01674
G1 X135.421 Y71.126 E.52227
G1 X134.887 Y71.126 E.01677
G1 X146.714 Y82.954 E.5254
G1 X146.505 Y83.076 E.0076
M73 Q2 S34
G1 X146.402 Y83.176 E.00451
G1 X134.353 Y71.126 E.53526
G1 X133.818 Y71.126 E.0168
G1 X146.245 Y83.554 E.55205
G1 X146.173 Y83.751 E.00659
G1 X146.173 Y83.874 E.00386
G1 X146.031 Y83.874 E.00446
G1 X133.284 Y71.126 E.56627
G1 X132.75 Y71.126 E.01677
G1 X145.497 Y83.874 E.56627
G1 X144.963 Y83.874 E.01677
G1 X132.216 Y71.126 E.56627
G1 X131.681 Y71.126 E.0168
G1 X144.429 Y83.874 E.56629
G1 X143.894 Y83.874 E.0168
G1 X131.147 Y71.126 E.56627
G1 X130.613 Y71.126 E.01677
G1 X142.36 Y82.873 E.52182
M73 Q3 S34
G1 X141.827 Y82.874 E.01674
M73 P3 R34
G1 X130.079 Y71.126 E.52187
G1 X129.545 Y71.126 E.01677
G1 X141.293 Y82.875 E.52189
G1 X140.76 Y82.876 E.01674
G1 X129.01 Y71.126 E.52196
G1 X128.476 Y71.126 E.01677
G1 X140.227 Y82.877 E.522
G1 X139.694 Y82.879 E.01674
G1 X127.942 Y71.126 E.52207
G1 X127.408 Y71.126 E.01677
G1 X139.161 Y82.88 E.52211
G1 X138.628 Y82.881 E.01674
G1 X126.873 Y71.126 E.52218
G1 X126.339 Y71.126 E.01677
G1 X138.094 Y82.882 E.5222
G1 X137.561 Y82.883 E.01674
G1 X125.805 Y71.126 E.52225
G1 X125.271 Y71.126 E.01677
G1 X137.028 Y82.884 E.52229
G1 X136.922 Y82.884 E.00333
G1 X136.666 Y82.97 E.00848
G1 X136.614 Y83.004 E.00195
G1 X124.736 Y71.126 E.52764
G1 X124.202 Y71.126 E.01677
G1 X136.349 Y83.273 E.53959
G1 X136.205 Y83.663 E.01306
G1 X123.668 Y71.126 E.55692
G1 X123.134 Y71.126 E.01677
G1 X135.881 Y83.874 E.56627
G1 X135.347 Y83.874 E.01677
G1 X122.599 Y71.126 E.56629
G1 X122.065 Y71.126 E.01677
G1 X134.812 Y83.874 E.56627
G1 X134.278 Y83.874 E.01677
G1 X121.531 Y71.126 E.56627
G1 X120.997 Y71.126 E.01677
G1 X132.744 Y82.874 E.52185
G1 X132.914 Y82.892 E.00537
G1 X133.086 Y82.947 E.00567
G1 X133.294 Y83.074 E.00766
G1 X133.425 Y83.202 E.00575
G1 X133.627 Y83.757 E.01855
G1 X133.914 Y84.043 E.01273
M204 S1000
;WIPE_START
G1 F8640
G1 X133.627 Y83.757 E-.09356
G1 X133.425 Y83.202 E-.13638
G1 X133.294 Y83.074 E-.04229
G1 X133.086 Y82.947 E-.05627
G1 X132.914 Y82.892 E-.0417
G1 X132.744 Y82.874 E-.03947
G1 X131.549 Y81.679 E-.39033
;WIPE_END
G1 Z.6 F720
G1 X132.379 Y83.043 F10800
G1 Z.2 F720
G1 E.8 F2100
M204 S800
G1 F1200
G1 X120.463 Y71.126 E.52935
G1 X119.928 Y71.126 E.0168
G1 X131.676 Y82.875 E.52189
G1 X131.143 Y82.876 E.01674
G1 X119.394 Y71.126 E.52194
G1 X118.86 Y71.126 E.01677
G1 X130.61 Y82.877 E.52198
G1 X130.077 Y82.878 E.01674
G1 X118.326 Y71.126 E.52202
G1 X117.791 Y71.126 E.0168
M73 Q4 S34
G1 X129.544 Y82.879 E.52209
G1 X129.011 Y82.88 E.01674
M73 P4 R34
G1 X117.257 Y71.126 E.52214
G1 X116.723 Y71.126 E.01677
G1 X128.477 Y82.881 E.52216
G1 X127.944 Y82.882 E.01674
G1 X116.189 Y71.126 E.5222
G1 X115.654 Y71.126 E.0168
G1 X127.411 Y82.883 E.52227
G1 X126.889 Y82.895 E.0164
G1 X115.12 Y71.126 E.5228
G1 X114.586 Y71.126 E.01677
G1 X126.523 Y83.064 E.53029
G1 X126.375 Y83.202 E.00636
G1 X126.309 Y83.383 E.00605
G1 X114.052 Y71.126 E.54448
G1 X113.517 Y71.126 E.0168
G1 X126.173 Y83.782 E.5622
G1 X126.173 Y83.874 E.00289
G1 X125.73 Y83.874 E.01392
G1 X112.983 Y71.126 E.56627
G1 X112.449 Y71.126 E.01677
G1 X125.196 Y83.874 E.56627
G1 X124.662 Y83.874 E.01677
G1 X111.915 Y71.126 E.56627
G1 X111.381 Y71.126 E.01677
G1 X124.128 Y83.874 E.56627
G1 X123.627 Y83.874 E.01574
G1 X123.627 Y83.751 E.00386
G1 X123.425 Y83.202 E.01837
G1 X123.294 Y83.074 E.00575
G1 X123.086 Y82.947 E.00766
G1 X122.914 Y82.892 E.00567
G1 X122.593 Y82.873 E.0101
G1 X110.846 Y71.126 E.52182
G1 X110.312 Y71.126 E.01677
G1 X122.059 Y82.874 E.52185
G1 X121.526 Y82.875 E.01674
G1 X109.778 Y71.126 E.52189
G1 X109.244 Y71.126 E.01677
G1 X120.993 Y82.876 E.52194
G1 X120.46 Y82.877 E.01674
G1 X108.709 Y71.126 E.522
G1 X108.175 Y71.126 E.01677
G1 X119.927 Y82.878 E.52205
G1 X119.394 Y82.879 E.01674
G1 X107.641 Y71.126 E.52209
G1 X107.107 Y71.126 E.01677
G1 X118.86 Y82.88 E.52211
G1 X118.327 Y82.881 E.01674
G1 X106.572 Y71.126 E.52218
G1 X106.038 Y71.126 E.01677
G1 X117.794 Y82.882 E.52222
G1 X117.261 Y82.883 E.01674
G1 X105.504 Y71.126 E.52227
G1 X104.97 Y71.126 E.01677
G1 X116.776 Y82.933 E.52447
M73 Q5 S34
G1 X116.666 Y82.97 E.00365
M73 P5 R34
G1 X116.444 Y83.135 E.00869
G1 X104.435 Y71.126 E.53346
G1 X103.901 Y71.126 E.01677
G1 X116.268 Y83.493 E.54937
G1 X116.173 Y83.751 E.00864
G1 X116.173 Y83.874 E.00386
G1 X116.114 Y83.874 E.00185
G1 X103.367 Y71.126 E.56627
G1 X102.833 Y71.126 E.01677
G1 X115.58 Y83.874 E.56627
G1 X115.046 Y83.874 E.01677
G1 X102.298 Y71.126 E.56629
G1 X101.764 Y71.126 E.01677
G1 X114.511 Y83.874 E.56627
G1 X113.977 Y83.874 E.01677
M73 P5 R33
G1 X101.23 Y71.126 E.56627
G1 X100.696 Y71.126 E.01677
G1 X112.446 Y82.877 E.52198
G1 X111.911 Y82.876 E.0168
G1 X100.162 Y71.126 E.52194
G1 X99.627 Y71.126 E.0168
G1 X111.377 Y82.876 E.52196
G1 X110.842 Y82.875 E.0168
G1 X99.093 Y71.126 E.52191
M73 Q5 S33
G1 X98.559 Y71.126 E.01677
G1 X110.307 Y82.875 E.52189
G1 X109.773 Y82.875 E.01677
G1 X98.127 Y71.229 E.51734
G1 X98.126 Y71.762 E.01674
G1 X109.238 Y82.874 E.49362
G1 X108.703 Y82.874 E.0168
G1 X98.125 Y72.295 E.46992
G1 X98.124 Y72.829 E.01677
G1 X108.169 Y82.873 E.4462
G1 X107.634 Y82.873 E.0168
G1 X98.123 Y73.362 E.4225
G1 X98.122 Y73.895 E.01674
G1 X107.1 Y82.873 E.39882
G1 X106.886 Y82.892 E.00675
G1 X106.668 Y82.976 E.00734
G1 X98.121 Y74.428 E.3797
G1 X98.12 Y74.962 E.01677
G1 X106.372 Y83.213 E.36655
G1 X106.227 Y83.603 E.01307
G1 X98.085 Y75.46 E.36171
G1 X98.017 Y75.661 E.00667
G1 X97.898 Y75.808 E.00594
G1 X105.964 Y83.874 E.35831
G1 X105.429 Y83.874 E.0168
G1 X97.566 Y76.01 E.34931
G1 X97.249 Y76.127 E.01061
G1 X97.149 Y76.127 E.00314
G1 X104.895 Y83.874 E.34411
G1 X104.361 Y83.874 E.01677
G1 X97.126 Y76.639 E.32139
G1 X97.126 Y77.173 E.01677
G1 X102.835 Y82.882 E.2536
G1 X103.133 Y82.97 E.00976
G1 X103.295 Y83.076 E.00608
G1 X103.425 Y83.202 E.00569
G1 X103.583 Y83.63 E.01433
G1 X103.996 Y84.043 E.01835
M204 S1000
;WIPE_START
G1 F8640
G1 X103.583 Y83.63 E-.13486
G1 X103.425 Y83.202 E-.10535
G1 X103.295 Y83.076 E-.0418
G1 X103.133 Y82.97 E-.0447
G1 X102.835 Y82.882 E-.07175
G1 X101.605 Y81.652 E-.40154
;WIPE_END
G1 Z.6 F720
G1 X102.47 Y83.051 F10800
G1 Z.2 F720
G1 E.8 F2100
M204 S800
G1 F1200
G1 X97.126 Y77.708 E.23737
G1 X97.126 Y78.242 E.01677
M73 P6 R33
M73 Q6 S33
G1 X101.764 Y82.88 E.20603
G1 X101.229 Y82.879 E.0168
G1 X98.127 Y79.777 E.1378
G1 X98.127 Y80.311 E.01677
G1 X100.694 Y82.878 E.11403
G1 X100.159 Y82.877 E.0168
G1 X98.127 Y80.846 E.09024
G1 X98.127 Y81.38 E.01677
G1 X99.623 Y82.876 E.06646
G1 X99.088 Y82.875 E.0168
G1 X98.127 Y81.914 E.04269
G1 X98.127 Y82.448 E.01677
G1 X98.723 Y83.044 E.02648
M204 S1000
;WIPE_START
G1 F8640
G1 X98.127 Y82.448 E-.19462
G1 X98.127 Y81.914 E-.1233
G1 X99.088 Y82.875 E-.31381
G1 X99.623 Y82.876 E-.12353
G1 X99.486 Y82.739 E-.04474
;WIPE_END
G1 Z.6 F720
G1 X155.787 Y116.512 F10800
G1 Z.2 F720
G1 E.8 F2100
M204 S800
;TYPE:Perimeter
;WIDTH:0.419999
G1 F1200
G1 X155.787 Y113.288 E.10109
G1 X156.222 Y113.288 E.01364
G1 X156.591 Y113.152 E.01233
G1 X156.725 Y112.981 E.00681
G1 X156.788 Y112.722 E.00836
G1 X156.788 Y107.078 E.17696
G1 X156.752 Y106.879 E.00634
G1 X156.591 Y106.648 E.00883
G1 X156.222 Y106.512 E.01233
G1 X155.787 Y106.512 E.01364
G1 X155.787 Y103.288 E.10109
G1 X156.222 Y103.288 E.01364
G1 X156.591 Y103.152 E.01233
G1 X156.725 Y102.981 E.00681
G1 X156.788 Y102.722 E.00836
G1 X156.788 Y97.078 E.17696
G1 X156.752 Y96.879 E.00634
G1 X156.591 Y96.648 E.00883
G1 X156.222 Y96.512 E.01233
G1 X155.787 Y96.512 E.01364
